X: 29816
T: O'Connell's Welcome To Clare
R: jig
M: 6/8
K: Cmajor
|:E/F/|GEG G<cE/F/|GEG G<cA|GcA Gfe|ecc cEF|
GEG G<cE/F/|GEG G<cd|efe dcd|ecc c2:|
|:e/f/|geg c'ba|g/>a/g/f/e/d/ ecA|GcA Gfe|edd d2 e/f/|
geg c'ba|g/>a/g/f/e/d/ ecA|Gfe dcd|ecc c2:|

